findly-builder/apps/searchassist/src/assets/icons/time.svg

<svg width="16" height="16" viewBox="0 0 16 16" fill="none" xmlns="http://www.w3.org/2000/svg">
<path d="M8.58095 2.84274C8.55413 2.54545 8.30427 2.3125 8 2.3125C7.67783 2.3125 7.41667 2.57367 7.41667 2.89583V8.40935L7.41905 8.46245C7.44587 8.75973 7.69573 8.99268 8 8.99268H12.5818L12.6349 8.9903C12.9322 8.96348 13.1652 8.71362 13.1652 8.40935L13.1628 8.35625C13.136 8.05897 12.8861 7.82602 12.5818 7.82602L8.58333 7.82573V2.89583L8.58095 2.84274Z" fill="#0D6EFD"/>
<path fill-rule="evenodd" clip-rule="evenodd" d="M8 0.125C3.65076 0.125 0.125 3.65076 0.125 8C0.125 12.3492 3.65076 15.875 8 15.875C12.3492 15.875 15.875 12.3492 15.875 8C15.875 3.65076 12.3492 0.125 8 0.125ZM8 1.29167C11.7049 1.29167 14.7083 4.29509 14.7083 8C14.7083 11.7049 11.7049 14.7083 8 14.7083C4.29509 14.7083 1.29167 11.7049 1.29167 8C1.29167 4.29509 4.29509 1.29167 8 1.29167Z" fill="#0D6EFD"/>
</svg>

<svg width="16" height="16" fill="none" xmlns="http://www.w3.org/2000/svg"><path d="M8.58 2.843a.583.583 0 0 0-1.163.053v5.513l.002.053c.027.298.277.53.581.53h4.582l.053-.002a.583.583 0 0 0 .53-.58l-.002-.054a.583.583 0 0 0-.581-.53H8.583v-4.93l-.002-.053Z" fill="#0D6EFD"/><path fill-rule="evenodd" clip-rule="evenodd" d="M8 .125a7.875 7.875 0 1 0 0 15.75A7.875 7.875 0 0 0 8 .125Zm0 1.167a6.708 6.708 0 1 1 0 13.416A6.708 6.708 0 0 1 8 1.292Z" fill="#0D6EFD"/></svg>
